X: 40474
T: Tom's Iced Wine
R: slip jig
M: 9/8
K: Fmajor
|:d2A A2G F2G|A2c c2A cfe|d2A A2G F2G|A2A AGF A^GA|
def f2e fef|efg g2f g2a|fff f2e fed|1 c2c cde f2e:|2 c2c cde f3||
eee e2d efg|a2d d2c A2c|B3 B2A BAG|A^GA cBA cde|
f2f f2e fga|g2e e2d e2g|fff f2e fed|c2c cde f2e||

